X:315
T:Highland Dress and Armour
R:Strathspey
B:The Athole Collection
M:C
L:1/8
K:C
c|G<C G>E G>C E<c|G<C G>D E2 E>c|G<C G>E G>C E<c|G<cE<c d2D:|
f|(3efg (3fga e>c c<e|d<B c>G E2 E>g|(3efg (3fga e<cc<e|G<cE<c D2 D>f|
(3efg (3fga e>c c<e|d<B c>G E2 E>e|c>e d<e c>eA<c|G<cE<c D2D||
|:e/f/|g<c a>c g>c e<a|g<c g>d e2ef|g<c a>c g>c e<a|g<c g>e d2d:|
e|c>e d/c/B/A/ G>E E<c|G<E c>G E2 E>e|c>e d/c/B/A/ g>E E<c|
G>cE>c D2 D>d|c>e d/c/B/A/ G<E E>c|G<E c>G E2 E>e|c>e d<e c<eA<c|
G>cE>c D2D||

